X: 41302
T: Tune For Jim DeWan
R: reel
M: 4/4
K: Amixolydian
|:EFED CA,CD|EA,FA, EDCD|EA,FA, EDCD|DG,EG, D2 CD|
BcAG EDEG|ABAG AEFG|ADBD DAFD|GGB,G, A,B,CD:|
EA (3dcA EAcA|EGAG EGAG|FAdA FAdA|c2 AG EDCD|
EA (3dcA EAcA|EGAG EGAG|AdeA f2 ed|cAGA EGAG|
EA (3dcA EAcA|EGAG EGAG|FAdA FAdA|c2 AG EDCD|
EA (3dcA EAcA|EGAG EGAG|AdfA g2 ed|cAGA EFGF||

